X:1
T:Gavotte
T:Gavotte
T:BWV 816 (French suite no. 5), 4th movement
T:Johann Sebastian Bach
C:Johann Sebastian Bach
%%score 1 2 3
L:1/8
Q:1/4=160
M:2/2
K:G
V:1 treble 
V:2 treble 
V:3 bass 
V:1
 b2 g2 | d2 ef g2 e2 | B4 e2 c2 | A2 Bc dBcA | cBAG b2 g2 | e2 ef g2 e2 | ^c2 de fdge | %7
 fd a2 gf ef | d4 :: A2 d2 | [df]4 x4 | [dg]2 d2 [gb]2 g2 | e2 fg a2 f2 | ^d4 B^cde | x8 | x8 | %16
 x4 e2 f^d | e4 B2 e2 | g4 cBAG | x4 ^FGAB | x8 | A4 c'2 a2 | f2 fg a2 f2 | d2 de fgaf | %24
 ge a2 Tf3 g | g4 :| %26
V:2
 d2 B2 | A4 B2 G2 | F4 G2 A2 | F2 x2 A2 x2 | G2 x2 d2 B2 | ^c2 cd e2 c2 | A8- | A2 d4 ^c2 | d4 :: %9
 F2 F2 | A4 gfed | G2 d2 d2 B2 | G2 AB c2 A2 | F4 B4 | gfge ^defg | abag fgab | c'a b2 G2 A2 | %17
 G4 G2 B2 | =d4 x4 | =fd e2 x4 | cABc dcde | F4 a2 f2 | c4 c2 A2 | F4 c4 | B2 c2 A4 | B4 :| %26
V:3
 G,2 G2 | F2 F,2 E,2 E2 | D2 D,2 C,2 C2 | D2 A,2 F,2 D,2 | G,2 D,2 G,,D,E,F, | G,A,G,F, E,D,E,F, | %6
 G,A,B,^C D2 C2 | D2 F,G, A,2 A,,2 | D,4 :: D2 A,2 | G,F,E,D, A,2 C2 | B,CB,A, G,A,B,G, | %12
 CDCB, A,B,CA, | B,2 B,,2 z2 F2 | ^D2 DE F2 D2 | B,2 B,^C ^D2 B,2 | G,F,G,A, B,2 B,,2 | %17
 E,B,,G,,B,, E,,F,,G,,A,, | B,,C,D,E, =F,G,A,B, | CDCB, A,G,^F,E, | D,C,B,,A,, G,,A,,B,,C, | %21
 D,A,,F,,A,, D,,E,,F,,G,, | A,,B,,A,,G,, F,,G,,A,,B,, | C,D,C,B,, A,,B,,C,D, | E,2 C,2 D,2 D,,2 | %25
 G,,4 :| %26

